build/documents/FileTIFFSolid.svg

<svg xmlns="http://www.w3.org/2000/svg" fill="none" viewBox="0 0 24 24" focusable="false"><path d="M0 0H24V24H0z"/><path fill="#74767B" fill-rule="evenodd" d="M5 6L5 11C3.34315 11 2 12.3431 2 14L2 18C2 19.6569 3.34315 21 5 21L19 21C20.6569 21 22 19.6569 22 18L22 14C22 12.3431 20.6569 11 19 11L19 9.17966C19 8.42148 18.7129 7.69141 18.1965 7.13629L15.2385 3.95662C14.671 3.34655 13.8752 3 13.042 3L8 3C6.34315 3 5 4.34315 5 6ZM8 4.3L13.042 4.3C13.1461 4.3 13.2491 4.30954 13.3499 4.32811L13.3499 7.04926C13.3499 8.12621 14.223 8.99926 15.2999 8.99926L17.6904 8.99925C17.6968 9.05892 17.7 9.11913 17.7 9.17966L17.7 11L6.3 11L6.3 6C6.3 5.06112 7.06112 4.3 8 4.3ZM16.9447 7.69926L14.6499 5.23254L14.6499 7.04926C14.6499 7.40824 14.9409 7.69926 15.2999 7.69926L16.9447 7.69926ZM17.6891 17.7593C17.6891 18.1183 17.398 18.4093 17.0391 18.4093C16.6801 18.4093 16.3891 18.1183 16.3891 17.7593L16.3891 14.2434C16.3891 13.8845 16.6801 13.5934 17.0391 13.5934L18.7518 13.5934C19.1108 13.5934 19.4018 13.8845 19.4018 14.2434C19.4018 14.6024 19.1108 14.8934 18.7518 14.8934L17.6891 14.8934L17.6891 15.8936L18.17 15.8936C18.529 15.8936 18.82 16.1846 18.82 16.5436C18.82 16.9026 18.529 17.1936 18.17 17.1936L17.6891 17.1936L17.6891 17.7593ZM12.7324 18.4093C13.0914 18.4093 13.3824 18.1183 13.3824 17.7593L13.3824 17.1936L13.8634 17.1936C14.2224 17.1936 14.5134 16.9026 14.5134 16.5436C14.5134 16.1846 14.2224 15.8936 13.8634 15.8936L13.3824 15.8936L13.3824 14.8934L14.4513 14.8934C14.8103 14.8934 15.1013 14.6024 15.1013 14.2434C15.1013 13.8845 14.8103 13.5934 14.4513 13.5934L12.7324 13.5934C12.3734 13.5934 12.0824 13.8845 12.0824 14.2434L12.0824 17.7593C12.0824 18.1183 12.3734 18.4093 12.7324 18.4093ZM7.67052 14.8935C8.0295 14.8935 8.32052 14.6025 8.32052 14.2435C8.32052 13.8845 8.0295 13.5935 7.67052 13.5935L6.46507 13.5935L6.45947 13.5935L6.45387 13.5935L5.24854 13.5935C4.88955 13.5935 4.59854 13.8845 4.59854 14.2435C4.59854 14.6025 4.88955 14.8935 5.24854 14.8935L5.80947 14.8935L5.80947 17.7593C5.80947 18.1183 6.10049 18.4093 6.45947 18.4093C6.81846 18.4093 7.10947 18.1183 7.10947 17.7593L7.10947 14.8935L7.67052 14.8935ZM9.9707 13.5935C10.3297 13.5935 10.6207 13.8845 10.6207 14.2435L10.6207 17.7593C10.6207 18.1183 10.3297 18.4093 9.9707 18.4093C9.61172 18.4093 9.3207 18.1183 9.3207 17.7593L9.3207 14.2435C9.3207 13.8845 9.61172 13.5935 9.9707 13.5935Z"/></svg>

<svg xmlns="http://www.w3.org/2000/svg" fill="none" viewBox="0 0 24 24" focusable="false"><path fill="#74767B" fill-rule="evenodd" d="M5 6v5c-1.66 0-3 1.34-3 3v4c0 1.65 1.34 3 3 3h14c1.65 0 3-1.35 3-3v-4c0-1.66-1.35-3-3-3V9.17c0-.75-.29-1.48-.81-2.04l-2.96-3.18c-.56-.61-1.36-.95-2.19-.95H8C6.34 3 5 4.34 5 6m3-1.7h5.04c.1 0 .2 0 .3.02v2.72c0 1.08.88 1.95 1.95 1.95h2.4c0 .06.01.12.01.18V11H6.3V6c0-.94.76-1.7 1.7-1.7m8.94 3.39-2.3-2.46v1.81c0 .36.3.65.65.65zm.74 10.06c0 .36-.29.65-.65.65-.35 0-.65-.29-.65-.65v-3.51c0-.36.3-.65.65-.65h1.72c.36 0 .65.29.65.65s-.29.65-.65.65h-1.07v1h.48c.36 0 .66.29.66.65s-.3.65-.66.65h-.48zm-4.95.65c.36 0 .65-.29.65-.65v-.56h.48c.36 0 .65-.29.65-.65s-.29-.65-.65-.65h-.48v-1h1.07c.36 0 .65-.29.65-.65s-.29-.65-.65-.65h-1.72c-.36 0-.65.29-.65.65v3.51c0 .36.29.65.65.65m-5.06-3.51c.35 0 .65-.29.65-.65s-.3-.65-.65-.65H5.24c-.36 0-.65.29-.65.65s.29.65.65.65h.56v2.86c0 .36.3.65.65.65.36 0 .65-.29.65-.65v-2.86zm2.3-1.3c.35 0 .65.29.65.65v3.51c0 .36-.3.65-.65.65-.36 0-.65-.29-.65-.65v-3.51c0-.36.29-.65.65-.65"/></svg>
